CSETWebApi/CSETWeb_Api/CSETWeb_ApiCore/Diagram/src/main/webapp/img/lib/mscae/Backup.svg

<svg xmlns="http://www.w3.org/2000/svg" width="50" height="41.666"><path d="M45.083 11.633l.05-1.083C45.133 4.733 40.35 0 34.483 0 31-.001 27.8 1.666 25.833 4.4c-1.266-.783-2.733-1.216-4.266-1.216-4.183 0-7.633 3.183-8.017 7.233.65-.083 1.3-.15 1.967-.15 3.083 0 6.05 1 8.467 2.767 1.816-4.184 6.433-6.867 11.55-7.017V2.433l6.25 5.35-6.25 5.317V9.6c-2.933.116-5.783 1.216-7.433 3.883l.333-.033c5.967 0 10.9 4.467 11.6 10.183 1.417 1.067 2.533 2.35 3.333 3.817C47.233 26.416 50 23.083 50 19c0-3.283-1.767-5.9-4.917-7.366z" fill="#0072c6"/><path d="M4.917 25.5l-.05-1.1c0-5.817 4.783-10.533 10.65-10.533 3.483 0 6.683 1.667 8.65 4.383 1.267-.783 2.733-1.2 4.267-1.2 4.433 0 8.05 3.583 8.05 7.983l-.017.634c3 1.517 4.617 4.033 4.617 7.183 0 4.95-4.033 8.817-9.183 8.817H9.183C4.033 41.666 0 37.8 0 32.85c0-3.266 1.767-5.883 4.917-7.35z" fill="#59b4d9"/></svg>

<?xml version="1.0" encoding="UTF-8" standalone="no"?>
<svg
   xmlns:dc="http://purl.org/dc/elements/1.1/"
   xmlns:cc="http://creativecommons.org/ns#"
   xmlns:rdf="http://www.w3.org/1999/02/22-rdf-syntax-ns#"
   xmlns:svg="http://www.w3.org/2000/svg"
   xmlns="http://www.w3.org/2000/svg"
   xmlns:sodipodi="http://sodipodi.sourceforge.net/DTD/sodipodi-0.dtd"
   xmlns:inkscape="http://www.inkscape.org/namespaces/inkscape"
   version="1.1"
   id="Layer_1"
   x="0px"
   y="0px"
   width="50"
   height="41.666"
   viewBox="0 0 50 41.666"
   enable-background="new 0 0 50 50"
   xml:space="preserve"
   inkscape:version="0.91 r13725"
   sodipodi:docname="Azure Backup_COLOR.svg"><metadata
     id="metadata11"><rdf:RDF><cc:Work
         rdf:about=""><dc:format>image/svg+xml</dc:format><dc:type
           rdf:resource="http://purl.org/dc/dcmitype/StillImage" /><dc:title></dc:title></cc:Work></rdf:RDF></metadata><defs
     id="defs9" /><sodipodi:namedview
     pagecolor="#ffffff"
     bordercolor="#666666"
     borderopacity="1"
     objecttolerance="10"
     gridtolerance="10"
     guidetolerance="10"
     inkscape:pageopacity="0"
     inkscape:pageshadow="2"
     inkscape:window-width="1920"
     inkscape:window-height="1018"
     id="namedview7"
     showgrid="false"
     fit-margin-top="0"
     fit-margin-left="0"
     fit-margin-right="0"
     fit-margin-bottom="0"
     inkscape:zoom="16.059063"
     inkscape:cx="25"
     inkscape:cy="20"
     inkscape:window-x="-8"
     inkscape:window-y="-8"
     inkscape:window-maximized="1"
     inkscape:current-layer="Layer_1" /><path
     d="M 45.083,11.633 C 45.116,11.283 45.133,10.916 45.133,10.55 45.133,4.7330004 40.35,4.4965651e-7 34.483,4.4965651e-7 31,-9.9955034e-4 27.8,1.6660004 25.833,4.3990004 24.567,3.6160004 23.1,3.1830004 21.567,3.1830004 17.384,3.1830004 13.934,6.3660004 13.55,10.416 14.2,10.333 14.85,10.266 15.517,10.266 18.6,10.266 21.567,11.266 23.984,13.033 25.8,8.8490004 30.417,6.1660004 35.533,6.0160004 L 35.533,2.4330004 41.783,7.7830004 35.533,13.1 35.533,9.6000004 C 32.6,9.7160004 29.75,10.816 28.1,13.483 L 28.433,13.45 C 34.4,13.45 39.333,17.917 40.033,23.633 41.45,24.7 42.566,25.983 43.366,27.45 47.233,26.416 50,23.083 50,18.999 50,15.716 48.233,13.099 45.083,11.633 Z"
     id="path3"
     inkscape:connector-curvature="0"
     style="fill:#0072c6" /><path
     d="M 4.917,25.499 C 4.884,25.132 4.867,24.766 4.867,24.399 4.867,18.582 9.65,13.866 15.517,13.866 19,13.866 22.2,15.533 24.167,18.249 25.434,17.466 26.9,17.049 28.434,17.049 32.867,17.049 36.484,20.632 36.484,25.032 L 36.467,25.666 C 39.467,27.183 41.084,29.699 41.084,32.849 41.084,37.799 37.051,41.666 31.901,41.666 L 9.183,41.666 C 4.033,41.666 0,37.799 0,32.849 0,29.583 1.767,26.966 4.917,25.499 Z"
     id="path5"
     inkscape:connector-curvature="0"
     style="fill:#59b4d9" /></svg>
